src/icons/small/Home.svg

<svg width="20" height="20" viewBox="0 0 20 20" fill="none" xmlns="http://www.w3.org/2000/svg">
<path d="M3.61342 7.44982L8.61343 3.53732C9.42794 2.89996 10.5721 2.89996 11.3866 3.53732L16.3866 7.44982C16.9316 7.87628 17.25 8.52979 17.25 9.2218V15C17.25 16.2426 16.2426 17.25 15 17.25H12.5C12.3619 17.25 12.25 17.1381 12.25 17V14C12.25 12.7574 11.2426 11.75 10 11.75C8.75736 11.75 7.75 12.7574 7.75 14V17C7.75 17.1381 7.63807 17.25 7.5 17.25H5C3.75736 17.25 2.75 16.2426 2.75 15V9.2218C2.75 8.52979 3.06843 7.87628 3.61342 7.44982Z" stroke="black" stroke-width="1.5"/>
</svg>

<svg xmlns="http://www.w3.org/2000/svg" width="20" height="20" fill="none"><path stroke="#000" stroke-width="1.5" d="m3.613 7.45 5-3.913a2.25 2.25 0 0 1 2.774 0l5 3.913a2.25 2.25 0 0 1 .863 1.772V15A2.25 2.25 0 0 1 15 17.25h-2.5a.25.25 0 0 1-.25-.25v-3a2.25 2.25 0 0 0-4.5 0v3a.25.25 0 0 1-.25.25H5A2.25 2.25 0 0 1 2.75 15V9.222c0-.692.318-1.346.863-1.772Z"/></svg>
